src/assets/icons/searchIcon.svg

<svg width="26" height="25" viewBox="0 0 26 25" fill="none" xmlns="http://www.w3.org/2000/svg">
<path d="M18.5448 15.7963C17.942 15.2281 16.9926 15.2561 16.4244 15.8589C15.8561 16.4617 15.8842 17.4111 16.487 17.9793L18.5448 15.7963ZM22.9711 24.0915C23.5739 24.6597 24.5233 24.6317 25.0915 24.0289C25.6597 23.4261 25.6317 22.4767 25.0289 21.9085L22.9711 24.0915ZM17.7399 10.7575C17.7399 14.7883 14.5299 18.0151 10.6199 18.0151V21.0151C16.2313 21.0151 20.7399 16.4001 20.7399 10.7575H17.7399ZM10.6199 18.0151C6.71001 18.0151 3.5 14.7883 3.5 10.7575H0.5C0.5 16.4001 5.00854 21.0151 10.6199 21.0151V18.0151ZM3.5 10.7575C3.5 6.72683 6.71001 3.5 10.6199 3.5V0.5C5.00854 0.5 0.5 5.11494 0.5 10.7575H3.5ZM10.6199 3.5C14.5299 3.5 17.7399 6.72683 17.7399 10.7575H20.7399C20.7399 5.11494 16.2313 0.5 10.6199 0.5V3.5ZM16.487 17.9793L22.9711 24.0915L25.0289 21.9085L18.5448 15.7963L16.487 17.9793Z" fill="#737C8E"/>
</svg>

<svg width="26" height="25" fill="none" xmlns="http://www.w3.org/2000/svg"><path d="M18.545 15.796a1.5 1.5 0 0 0-2.058 2.183l2.058-2.183Zm4.426 8.296a1.5 1.5 0 0 0 2.058-2.183l-2.058 2.183ZM17.74 10.758c0 4.03-3.21 7.257-7.12 7.257v3c5.611 0 10.12-4.615 10.12-10.258h-3Zm-7.12 7.257c-3.91 0-7.12-3.227-7.12-7.258h-3c0 5.643 4.509 10.258 10.12 10.258v-3ZM3.5 10.757c0-4.03 3.21-7.257 7.12-7.257v-3C5.009.5.5 5.115.5 10.758h3ZM10.62 3.5c3.91 0 7.12 3.227 7.12 7.258h3C20.74 5.115 16.23.5 10.62.5v3Zm5.867 14.48 6.484 6.111 2.058-2.183-6.484-6.112-2.058 2.183Z" fill="#737C8E"/></svg>
